icons/linear-ele-time-watch-1.svg

<svg xmlns="http://www.w3.org/2000/svg" width="32px" height="32px" viewBox="0 0 32 32" version="1.1">
    <title>linear-ele-time-watch-1</title>
    <g id="linear-ele-time-watch-1" stroke-width="1" fill-rule="evenodd">
        <path d="M20,2 C20.5522847,2 21,2.44771525 21,3 L21.0009861,7.33839245 C23.9894491,9.06757986 26,12.2989953 26,16 C26,19.7010047 23.9894491,22.9324201 21.0009861,24.6616075 L21,29 C21,29.5522847 20.5522847,30 20,30 L12,30 C11.4477153,30 11,29.5522847 11,29 L11.0000129,24.6621855 C8.01099892,22.9331402 6,19.7014171 6,16 C6,12.2985829 8.01099892,9.06685978 11.0000129,7.33781451 L11,3 C11,2.44771525 11.4477153,2 12,2 L20,2 Z M16,26 C14.9548381,26 13.9471258,25.8396596 13.0001192,25.5422352 L13,28 L19,28 L19.0008825,25.5419205 C18.0535849,25.8395465 17.0455304,26 16,26 Z M16,8 C11.581722,8 8,11.581722 8,16 C8,20.418278 11.581722,24 16,24 C20.418278,24 24,20.418278 24,16 C24,11.581722 20.418278,8 16,8 Z M16,20 C16.5522847,20 17,20.4477153 17,21 C17,21.5522847 16.5522847,22 16,22 C15.4477153,22 15,21.5522847 15,21 C15,20.4477153 15.4477153,20 16,20 Z M18.8284271,18.8284271 C19.2189514,18.4379028 19.8521164,18.4379028 20.2426407,18.8284271 C20.633165,19.2189514 20.633165,19.8521164 20.2426407,20.2426407 C19.8521164,20.633165 19.2189514,20.633165 18.8284271,20.2426407 C18.4379028,19.8521164 18.4379028,19.2189514 18.8284271,18.8284271 Z M11.7573593,18.8284271 C12.1478836,18.4379028 12.7810486,18.4379028 13.1715729,18.8284271 C13.5620972,19.2189514 13.5620972,19.8521164 13.1715729,20.2426407 C12.7810486,20.633165 12.1478836,20.633165 11.7573593,20.2426407 C11.366835,19.8521164 11.366835,19.2189514 11.7573593,18.8284271 Z M21,15 C21.5522847,15 22,15.4477153 22,16 C22,16.5522847 21.5522847,17 21,17 C20.4477153,17 20,16.5522847 20,16 C20,15.4477153 20.4477153,15 21,15 Z M11,15 C11.5522847,15 12,15.4477153 12,16 C12,16.5522847 11.5522847,17 11,17 C10.4477153,17 10,16.5522847 10,16 C10,15.4477153 10.4477153,15 11,15 Z M18.8284271,11.7573593 C19.2189514,11.366835 19.8521164,11.366835 20.2426407,11.7573593 C20.633165,12.1478836 20.633165,12.7810486 20.2426407,13.1715729 C19.8521164,13.5620972 19.2189514,13.5620972 18.8284271,13.1715729 C18.4379028,12.7810486 18.4379028,12.1478836 18.8284271,11.7573593 Z M11.7573593,11.7573593 C12.1478836,11.366835 12.7810486,11.366835 13.1715729,11.7573593 C13.5620972,12.1478836 13.5620972,12.7810486 13.1715729,13.1715729 C12.7810486,13.5620972 12.1478836,13.5620972 11.7573593,13.1715729 C11.366835,12.7810486 11.366835,12.1478836 11.7573593,11.7573593 Z M16,10 C16.5522847,10 17,10.4477153 17,11 C17,11.5522847 16.5522847,12 16,12 C15.4477153,12 15,11.5522847 15,11 C15,10.4477153 15.4477153,10 16,10 Z M19,4 L13,4 L13.0001192,6.45776484 C13.9471258,6.16034037 14.9548381,6 16,6 C17.0455304,6 18.0535849,6.16045347 19.0008825,6.45807951 L19,4 Z" id="&#24418;&#29366;" fill-rule="nonzero" />
    </g>
</svg>

<svg xmlns="http://www.w3.org/2000/svg" viewBox="0 0 32 32"><path fill="currentColor" d="M20 2a1 1 0 0 1 1 1l.001 4.338A9.996 9.996 0 0 1 26 16a9.996 9.996 0 0 1-4.999 8.662L21 29a1 1 0 0 1-1 1h-8a1 1 0 0 1-1-1v-4.338A9.996 9.996 0 0 1 6 16a9.996 9.996 0 0 1 5-8.662V3a1 1 0 0 1 1-1zm-4 24a9.996 9.996 0 0 1-3-.458V28h6v-2.458A9.996 9.996 0 0 1 16 26m0-18a8 8 0 1 0 0 16 8 8 0 0 0 0-16m0 12a1 1 0 1 1 0 2 1 1 0 0 1 0-2m2.828-1.172a1 1 0 1 1 1.415 1.415 1 1 0 0 1-1.415-1.415m-7.07 0a1 1 0 1 1 1.414 1.415 1 1 0 0 1-1.415-1.415M21 15a1 1 0 1 1 0 2 1 1 0 0 1 0-2m-10 0a1 1 0 1 1 0 2 1 1 0 0 1 0-2m7.828-3.243a1 1 0 1 1 1.415 1.415 1 1 0 0 1-1.415-1.415m-7.07 0a1 1 0 1 1 1.414 1.415 1 1 0 0 1-1.415-1.415M16 10a1 1 0 1 1 0 2 1 1 0 0 1 0-2m3-6h-6v2.458A9.996 9.996 0 0 1 16 6c1.046 0 2.054.16 3 .458z"/></svg>
